assets/logos/google.svg

<svg width="80" height="80" viewBox="0 0 80 80" fill="none" xmlns="http://www.w3.org/2000/svg">
<path d="M23.0011 39.9523C23.0011 36.687 23.8748 33.6282 25.3926 31.0091V19.8993H14.6034C10.3212 25.6259 8 32.6051 8 39.9523C8 47.2995 10.3212 54.2787 14.6034 60.0053H25.3926V48.8955C23.8748 46.2764 23.0011 43.2176 23.0011 39.9523Z" fill="#FBBD00"/>
<path d="M40.0052 57.459L32.5046 65.1824L40.0052 72.9057C47.1406 72.9057 53.9183 70.5156 59.4797 66.1062V55.0083H48.702C46.1361 56.5769 43.153 57.459 40.0052 57.459Z" fill="#0F9D58"/>
<path d="M25.3948 48.8958L14.6055 60.0055C15.4533 61.1393 16.3765 62.2251 17.3754 63.2538C23.4199 69.4777 31.4563 72.9054 40.0044 72.9054V57.4587C33.801 57.4587 28.364 54.0193 25.3948 48.8958Z" fill="#31AA52"/>
<path d="M72.0003 39.9535C72.0003 37.9487 71.824 35.9401 71.4762 33.9838L71.1948 32.4006H39.9979V47.8473H55.1805C53.7062 50.8673 51.4393 53.3311 48.6946 55.0092L59.4723 66.1071C60.5734 65.2341 61.6279 64.2835 62.627 63.2549C68.6714 57.0308 72.0003 48.7556 72.0003 39.9535Z" fill="#3C79E6"/>
<path d="M52.0269 27.5741L53.3528 28.9393L63.9602 18.017L62.6344 16.6517C56.5899 10.4277 48.5534 7 40.0052 7L32.5046 14.7233L40.0052 22.4467C44.5463 22.4467 48.8157 24.2676 52.0269 27.5741Z" fill="#CF2D48"/>
<path d="M40.0046 22.4467V7C31.4564 7 23.42 10.4277 17.3754 16.6516C16.3765 17.6802 15.4533 18.766 14.6055 19.8999L25.3948 31.0097C28.3641 25.8861 33.8011 22.4467 40.0046 22.4467Z" fill="#EB4132"/>
</svg>

<svg xmlns="http://www.w3.org/2000/svg" width="80" height="80" fill="none" viewBox="0 0 80 80"><path fill="#fbbd00" d="M23.001 39.952c0-3.265.874-6.324 2.392-8.943V19.9h-10.79C10.321 25.626 8 32.605 8 39.952s2.321 14.327 6.603 20.053h10.79v-11.11A17.8 17.8 0 0 1 23 39.953"/><path fill="#0f9d58" d="m40.005 57.459-7.5 7.723 7.5 7.724c7.136 0 13.913-2.39 19.475-6.8V55.008H48.702a16.63 16.63 0 0 1-8.697 2.451"/><path fill="#31aa52" d="m25.395 48.896-10.79 11.11a33 33 0 0 0 2.77 3.248c6.045 6.224 14.081 9.651 22.63 9.651V57.46c-6.204 0-11.641-3.44-14.61-8.563"/><path fill="#3c79e6" d="M72 39.954c0-2.005-.176-4.014-.524-5.97l-.281-1.583H39.998v15.446H55.18a17.23 17.23 0 0 1-6.486 7.162l10.777 11.098a33 33 0 0 0 3.155-2.852C68.671 57.03 72 48.755 72 39.953"/><path fill="#cf2d48" d="m52.027 27.574 1.326 1.365L63.96 18.017l-1.326-1.365C56.59 10.428 48.554 7 40.005 7l-7.5 7.723 7.5 7.724c4.541 0 8.81 1.82 12.022 5.127"/><path fill="#eb4132" d="M40.005 22.447V7c-8.549 0-16.585 3.428-22.63 9.652a33 33 0 0 0-2.77 3.248l10.79 11.11c2.97-5.124 8.406-8.563 14.61-8.563"/></svg>
